images_breeze_svg/cmd/32/signpdf.svg

<svg viewBox="0 0 32 32" xmlns="http://www.w3.org/2000/svg"><path d="m6 4v14l4.5-3 4.5 3v-2-12zm10 0v1h9v11h1v-12zm-3 4c-.92027 2.36079-2.80902 3.4428-5 5 .83315-4.49359 1.4-5 5-5zm8 8c-1.657 0-3 1.343-3 3v3h-2v6h10v-6h-2v-3c0-1.657-1.343-3-3-3zm0 1c1.105 0 2 .895 2 2v3h-4v-3c0-1.105.895-2 2-2zm-15 2v8 1h9v-1h-8v-8z" fill="#4d4d4d"/></svg>

<?xml version="1.0" encoding="UTF-8" standalone="no"?>
<svg
   xmlns:dc="http://purl.org/dc/elements/1.1/"
   xmlns:cc="http://creativecommons.org/ns#"
   xmlns:rdf="http://www.w3.org/1999/02/22-rdf-syntax-ns#"
   xmlns:svg="http://www.w3.org/2000/svg"
   xmlns="http://www.w3.org/2000/svg"
   xmlns:sodipodi="http://sodipodi.sourceforge.net/DTD/sodipodi-0.dtd"
   xmlns:inkscape="http://www.inkscape.org/namespaces/inkscape"
   viewBox="0 0 32 32"
   version="1.1"
   id="svg4"
   sodipodi:docname="signpdf.svg"
   inkscape:version="0.92.4 (unknown)"
   inkscape:export-filename="/home/rizmut/Dokumen/Rizmut/Github/tmp/breeze/cmd/32/signpdf.png"
   inkscape:export-xdpi="96"
   inkscape:export-ydpi="96">
  <metadata
     id="metadata10">
    <rdf:RDF>
      <cc:Work
         rdf:about="">
        <dc:format>image/svg+xml</dc:format>
        <dc:type
           rdf:resource="http://purl.org/dc/dcmitype/StillImage" />
        <dc:title></dc:title>
      </cc:Work>
    </rdf:RDF>
  </metadata>
  <defs
     id="defs8" />
  <sodipodi:namedview
     pagecolor="#ffffff"
     bordercolor="#666666"
     borderopacity="1"
     objecttolerance="10"
     gridtolerance="10"
     guidetolerance="10"
     inkscape:pageopacity="0"
     inkscape:pageshadow="2"
     inkscape:window-width="1360"
     inkscape:window-height="714"
     id="namedview6"
     showgrid="true"
     inkscape:zoom="7.375"
     inkscape:cx="26.512916"
     inkscape:cy="29.407362"
     inkscape:window-x="0"
     inkscape:window-y="28"
     inkscape:window-maximized="1"
     inkscape:current-layer="svg4">
    <inkscape:grid
       type="xygrid"
       id="grid817" />
  </sodipodi:namedview>
  <path
     d="M 6 4 L 6 18 L 10.5 15 L 15 18 L 15 16 L 15 4 L 6 4 z M 16 4 L 16 5 L 25 5 L 25 16 L 26 16 L 26 4 L 16 4 z M 13 8 C 12.07973 10.36079 10.19098 11.4428 8 13 C 8.83315 8.50641 9.4 8 13 8 z M 21 16 C 19.343 16 18 17.343 18 19 L 18 22 L 16 22 L 16 28 L 26 28 L 26 22 L 24 22 L 24 19 C 24 17.343 22.657 16 21 16 z M 21 17 C 22.105 17 23 17.895 23 19 L 23 22 L 19 22 L 19 19 C 19 17.895 19.895 17 21 17 z M 6 19 L 6 27 L 6 28 L 15 28 L 15 27 L 7 27 L 7 19 L 6 19 z "
     id="path2"
     style="fill:#4d4d4d;fill-opacity:1;stroke:none" />
</svg>
